X:1
T: Compliments to W.K. Jenkins
C:Nathaniel Gow
R:Strathspey
Q: 128
K:Eb
M:4/4
L:1/16
|:B3A|G6A2 B2G2 A2B2|c2B2 A2G2 F4 G2A2|B2A2 G2F2 E2D2 E2G2|F2E2 D2C2 B,4 B2A2|
G6A2 B2G2 A2B2|c2d2 e2c2 g4 f2e2|d2c2 B2A2 G2F2 E2D2|E4 E4 E4:|
d3e|f2d2 f2d2 B4 e2f2|g2e2 g2e2 B4 a2g2|f2a2 c'2b2 a2g2 f2e2|d2c2 B2=A2 B4 B3c|
d2B2 c2d2 c2A2 B2c2|B2A2 G2F2 E2G2 B2G2|c2B2 A2G2 G2F2 E2D2|E4 E4 E4 d3e|
f2d2 e2f2 B4 e2f2|g2e2 g2e2 B4 a2g2|f2a2 c'2b2 a2g2 f2e2|d2c2 B2=A2 B4 e2d2|
d2c2 e2c2 c2B2 e2d2|d2c2 e2c2 B2z2 e2d2|d2c2 B2A2 G2F2 E2D2|E4 E4 E4||
